static/icons/Europe.svg

<svg width="24" height="24" viewBox="0 0 24 24" fill="none" xmlns="http://www.w3.org/2000/svg">
<g clip-path="url(#clip0_6_4446)">
<path fill-rule="evenodd" clip-rule="evenodd" d="M12.0087 23.9909C18.6304 23.9909 23.9996 18.6217 23.9996 12C23.9996 5.37835 18.6304 0.00915527 12.0087 0.00915527C5.38701 0.00915527 0.0178223 5.37835 0.0178223 12C0.0178223 18.6217 5.38654 23.9909 12.0087 23.9909Z" fill="#003399"/>
<path d="M12.0087 2.67383L11.7099 3.59282H10.7431L11.5225 4.1591L11.2293 5.08512L12.0087 4.51883L12.7872 5.08512L12.4949 4.1591L13.2743 3.59282H12.3085L12.0087 2.67383ZM12.3085 19.5805L12.0087 18.6615L11.7099 19.5805H10.7431L11.5225 20.1468L11.2293 21.0728L12.0087 20.5065L12.7872 21.0728L12.4939 20.1468L13.2733 19.5805H12.3085ZM4.01462 12.5152L4.79403 13.0773L4.50081 12.1513L5.28022 11.585H4.31439L4.01462 10.666L3.71485 11.585H2.74902L3.52843 12.1513L3.23522 13.0773L4.01462 12.5152ZM8.00955 3.74598L7.70978 4.66544H6.74489L7.52429 5.23828L7.23108 6.15727L8.00955 5.58302L8.78895 6.15586L8.49574 5.23688L9.27561 4.66403H8.31166L8.00955 3.74598ZM5.08724 6.67063L4.78747 7.58961H3.82164L4.60105 8.1559L4.30128 9.08192L5.08724 8.51563L5.86665 9.08192L5.56688 8.1559L6.35284 7.58961H5.38655L5.08724 6.67063ZM5.38655 15.5837L5.08677 14.6647L4.787 15.5837H3.82164L4.60105 16.15L4.30128 17.076L5.08724 16.5097L5.86665 17.076L5.56688 16.15L6.35284 15.5837H5.38655ZM8.31119 18.5107L8.00955 17.5893L7.71165 18.5107H6.74489L7.52429 19.0835L7.23201 20.0002L8.00955 19.4273L8.78895 20.0002L8.49574 19.0812L9.27702 18.5107H8.31119ZM21.2684 11.5869H20.3025L20.0028 10.6679L19.703 11.5869H18.7358L19.5152 12.1532L19.2233 13.0773L20.0028 12.5152L20.7822 13.0773L20.4889 12.1513L21.2684 11.5869ZM16.0055 3.74598L15.7057 4.66544H14.7399L15.5193 5.23828L15.2261 6.15727L16.0055 5.58302L16.7849 6.15586L16.4917 5.23688L17.2711 4.66403H16.3053L16.0055 3.74598ZM18.4505 8.1559L18.1507 9.08192L18.9301 8.51563L19.7161 9.08192L19.4163 8.1559L20.1957 7.58961H19.2299L18.9301 6.67063L18.6304 7.58961H17.6645L18.4505 8.1559ZM19.2294 15.5837L18.9297 14.6647L18.6299 15.5837H17.6641L18.45 16.15L18.1503 17.076L18.9297 16.5097L19.7156 17.076L19.4159 16.15L20.1957 15.5837H19.2294ZM16.3053 18.5107L16.0055 17.5917L15.7057 18.5107H14.7399L15.5193 19.0835L15.2261 20.0025L16.0055 19.4297L16.7849 20.0025L16.4917 19.0835L17.2711 18.5107H16.3053Z" fill="#FFCC00"/>
</g>
<defs>
<clipPath id="clip0_6_4446">
<rect width="24" height="24" fill="white"/>
</clipPath>
</defs>
</svg>

<svg xmlns="http://www.w3.org/2000/svg" width="24" height="24" fill="none"><g clip-path="url(#a)"><path fill="#039" fill-rule="evenodd" d="M12.009 23.99c6.621 0 11.99-5.368 11.99-11.99S18.63.01 12.01.01C5.387.01.018 5.377.018 12s5.369 11.99 11.99 11.99Z" clip-rule="evenodd"/><path fill="#FC0" d="m12.009 2.674-.3.919h-.966l.78.566-.294.926.78-.566.778.566-.292-.926.78-.566h-.966l-.3-.92Zm.3 16.907-.3-.92-.3.92h-.966l.78.566-.294.926.78-.567.778.567-.293-.926.78-.566h-.965Zm-8.294-7.066.779.562-.293-.926.78-.566h-.967l-.3-.919-.3.919H2.75l.78.566-.294.926.78-.562ZM8.01 3.746l-.3.92h-.965l.78.572-.294.92.779-.575.779.573-.293-.92.78-.572h-.964l-.302-.918ZM5.087 6.671l-.3.919h-.965l.779.566-.3.926.786-.566.78.566-.3-.926.786-.566h-.966l-.3-.92Zm.3 8.913-.3-.92-.3.92h-.965l.779.566-.3.926.786-.566.78.566-.3-.926.786-.566h-.966ZM8.31 18.51l-.301-.922-.298.922h-.967l.78.573-.293.916.778-.573.779.573-.293-.919.781-.57h-.966Zm12.957-6.924h-.966l-.3-.92-.299.92h-.967l.78.566-.293.924.78-.562.78.562-.294-.926.78-.564Zm-5.262-7.841-.3.92h-.966l.78.572-.294.92.78-.575.779.573-.293-.92.78-.572h-.967l-.3-.918Zm2.445 4.41-.3.926.78-.566.785.566-.3-.926.78-.566h-.966l-.3-.92-.3.92h-.965l.786.566Zm.778 7.428-.3-.92-.3.92h-.965l.786.566-.3.926.78-.566.786.566-.3-.926.78-.566h-.967Zm-2.924 2.927-.3-.92-.3.92h-.965l.78.573-.294.919.78-.573.779.573-.293-.92.78-.572h-.967Z"/></g><defs><clipPath id="a"><path fill="#fff" d="M0 0h24v24H0z"/></clipPath></defs></svg>
